src/resources/assets/edit.svg

<svg xmlns="http://www.w3.org/2000/svg" width="16" height="16"><path d="M 13.65625 2.34375 C 14.4375 3.125 14.4375 4.390625 13.65625 5.171875 L 6.269531 12.558594 C 5.949219 12.878906 5.546875 13.105469 5.109375 13.214844 L 2.816406 13.789062 C 2.453125 13.878906 2.121094 13.546875 2.210938 13.183594 L 2.785156 10.890625 C 2.894531 10.453125 3.121094 10.050781 3.441406 9.730469 L 10.828125 2.34375 C 11.609375 1.5625 12.875 1.5625 13.65625 2.34375 Z M 10.121094 4.464844 L 4.148438 10.4375 C 3.957031 10.628906 3.820312 10.871094 3.753906 11.132812 L 3.382812 12.617188 L 4.867188 12.246094 C 5.128906 12.179688 5.371094 12.042969 5.5625 11.851562 L 11.535156 5.878906 Z M 11.535156 3.050781 L 10.828125 3.757812 L 12.242188 5.171875 L 12.949219 4.464844 C 13.339844 4.074219 13.339844 3.441406 12.949219 3.050781 C 12.558594 2.660156 11.925781 2.660156 11.535156 3.050781 Z M 11.535156 3.050781" fill="#ddd"/></svg>

<svg xmlns="http://www.w3.org/2000/svg" width="16" height="16"><path d="M13.656 2.344a2 2 0 010 2.828L6.27 12.559a2.5 2.5 0 01-1.16.656l-2.294.574a.502.502 0 01-.605-.605l.574-2.293a2.5 2.5 0 01.656-1.16l7.387-7.387a2 2 0 012.828 0zm-3.535 2.12l-5.973 5.973a1.512 1.512 0 00-.394.696l-.371 1.484 1.484-.37c.262-.067.504-.204.696-.395l5.972-5.973zm1.414-1.413l-.707.707 1.414 1.414.707-.707a1 1 0 10-1.414-1.414zm0 0" fill="#ddd"/></svg>
